X:1
T:C minor Samuel Holyoke, 1791
T:Henry Alline, 1786 Adieu to all for Christ               86. 86. (C. M.)
T:Yarmouth Transcribed from Harmonia Americana, 1791.
%%score [ 1 2 3 4 ]
L:1/8
Q:1/4=70
M:3/4
K:Eb
V:1 treble nm="Tr." snm="Tr."
V:2 treble nm="C." snm="C."
V:3 treble-8 nm="T." snm="T."
V:4 bass nm="B." snm="B."
V:1
"^1. A  – dieu   to    earth  with all  your  joy!  A–dieu to  all   be–low!  Your pleasures  all   I'd  count  a   toy,    If     I   might  Je –sus know." c2 | %1
 e4 d>c | B4 A2 | (B3 A) G2 | G4 c2 | c4 c2 | (c3 B) A2 | G4 G2 | G4 c2 | c4 BA | G4 F2 | F4 G2 | %12
 G4 A2 | G4 G2 | G6 |] %15
V:2
"^2.  A – dieu    to     all  cre–a–ted bliss! Your greatest friendship too;  A – dieu    to   all    but  Jesus Christ.  For him   I  must   pur–sue." E2 | %1
 E4 F2 | G4 F2 | D4 D2 | E4 G2 | F4 F2 | F4 F>E | D4 D2 | (E3 D) C2 | C4 =B,2 | C4 C2 | B,4 B,2 | %12
 C4 C2 | C4 =B,2 | C6 |] %15
V:3
"^3.   O   give  me  Christ!  for he  is   all,  My soul  for  him  doth  pant;  Let oth  – ers  take  this  lit – tle ball,  No  share   of    it     I    want." G2 | %1
 (c3 B) A2 | G4 A2 | G4 =B2 | c4 G2 | A4 A2 | (A3 B) c2 | =B4 B2 | (c3 B) A2 | G4 F2 | G4 =A2 | %11
 B4 d2 | (e>f g2) f2 | e4 d2 | c6 |] %15
V:4
"^4.  Je – sus  while  here is  my    delight;   No  other joys I'd  know;  And when I quit  these shades of night,  I    shall  with  Je – sus  go.""^__________________________________________________\nEdited by B. C. Johnston, 2016\n   Measure 1, Tenor: note changed from A to G." C,2 | %1
 C,4 D,2 | E,4 F,2 | G,4 G,,2 | C,4 C,2 | F,4 F,2 | F,4 F,2 | G,4 G,2 | C,4 C,2 | C,4 D,2 | %10
 E,4 F,2 | B,,4 G,,2 | (C,>D, E,2) F,2 | G,4 G,,2 | C,6 |] %15

